X:1
T:We Have This Hope
T:We Have This Hope
T:Wayne Hillard Hooper
T:Wayne Hillard Hooper, 1962
T:© 1962 Wayne Hooper
T:© 1962 Wayne Hooper
C:Wayne Hillard Hooper
Z:© 1962 Wayne Hooper
%%score ( 1 2 ) ( 3 4 )
L:1/8
Q:1/4=115
M:4/4
K:Ab
V:1 treble 
V:2 treble 
V:3 bass 
V:4 bass 
V:1
 [CEA]4 [B,EG]2 [CEA]2 | [A,DF]4 ([G,B,F]2 [G,B,F]2) | [A,CE]2 [CEA]2 [B,EA]2 [B,EG]2 | [CEA]6 z2 | %4
w: 1.~We have this|hope that *|burns with- in our|hearts,|
w: 2.~We are u-|nit- ed~in *|Je- sus Christ our|Lord.|
 [CEA]4 [B,EGB]2 [CEAc]2 | [DFAd]2 [CEAc]2 [B,DFB]2 [A,CFA]2 | ([B,=DB-]8 | [EGB]8) | %8
w: Hope in the|com- ing of the|Lord.||
w: We are u-|nit- ed in His|love.||
 [CEA]4 [B,EG]2 [CEA]2 | [A,DF]4 [G,B,E]4 | [A,CE]2 [CEA]2 [B,EA]2 [B,EG]2 | [CEA]6 z2 | %12
w: We have this|faith that|Christ a- lone im-|parts,|
w: Love for the|wait- ing|peo- ple of the|world,|
 [DFBd]4 [CEAc]2 [B,DFB]2 | [CEA]2 [B,EG]2 [A,DF]2 [B,DEG]2 | A8- | [CA]6 z2 | %16
w: Faith in the|prom- ise of His|Word.||
w: Peo- ple who|need our Sav- ior’s|love.||
 [G,B,E]3 [G,B,E] [G,B,E]2 [G,B,E]2 | [A,CF]2 [A,CF]2 [A,CF]4 | [B,DG]3 [B,DG] [B,CG]2 [B,CG]2 | %19
w: We be- lieve the|time is here,|When the na- tions|
w: Soon the heav’ns will|o- pen wide,|Christ will come to|
 [A,CFA]2 [CFA]2 [CFA]4 | [EGB]3 [EGB] [EAc]2 [EGB]2 | [EA]2 [EGB]2 [EAc]4 | %22
w: far and near|Shall a- wake, and|shout and sing|
w: claim His bride,|All the un- i-|verse will sing|
 [DFAd]3 [DFAd] [CEAc]2 [CEA]2 | [EAce]2 [EAce]2 (!fermata![de-]2 !fermata![ce]2) | %24
w: Hal- le- lu- jah!|Christ is King! *|
w: Hal- le- lu- jah!|Christ is King! *|
 [CEA]4 [B,EG]2 [CEA]2 | [A,DF]4 [G,B,E]4 | [A,CE]2 [A,CEA]2 [A,CFA]2 [DFGB]2 | [C=EGc]6 z2 | %28
w: We have this|hope that|burns with- in our|hearts,|
w: We have this|hope, this|faith, and God’s great|love,|
 [DFBd]4 [CEAc]2 [B,DFB]2 | [CEA]2 [B,EGc]2 [A,DFe]2 [B,DEG]2 | ([A,CEea]8 | [Acea]6) z2 |] %32
w: Hope in the|com- ing of the|Lord.||
w: We are u-|ni- t- ed in|Christ.||
V:2
 x8 | x8 | x8 | x8 | x8 | x8 | x8 | (B,4 D4) | x8 | x8 | x8 | x8 | x8 | x8 | D2 C2 B,2 D2 | x8 | %16
 x8 | x8 | x8 | x8 | x8 | x8 | x8 | x2 G4 x2 | x8 | x8 | x8 | x8 | x8 | x8 | x8 | x8 |] %32
V:3
 A,2 A,,2 B,,2 C,2 | D,2 B,,2 (E,2 D,2) | C,2 A,,2 E,2 E,2 | (A,,2 E,2 A,4) | A,,2 C,2 E,2 A,,2 | %5
 B,,2 C,2 D,2 F,2 | (B,,2 F,2 B,2 A,2 | G,2 F,2 E,2 E,,2) | A,2 A,,2 B,,2 C,2 | D,2 B,,2 E,2 D,2 | %10
 C,2 A,,2 E,2 E,2 | (A,,2 E,2 A,4) | B,2 B,,2 C,2 D,2 | E,4 E,,4 | F,2 E,2 D,2 F,2 | E,6 D,2 | %16
 E,2 E,,4 E,2 | E,2 E,,4 E,2 | E,2 E,,2 =E,,2 =E,2 | F,2 F,,4 F,2 | [E,B,]3 [E,B,] [A,C]2 [E,B,]2 | %21
 [C,A,]2 [E,B,]2 [A,C]4 | (D,E,) (F,G,) A,2 A,2 | C,2 A,,2 [E,D]4 | A,2 A,,2 B,,2 C,2 | %25
 (D,2 B,,2) (E,2 D,2) | C,2 A,,2 F,,2 D,,2 | (z2 G,,2 =E,4) | B,2 B,,2 C,2 D,2 | E,4 E,,2 E,2 | %30
 ([A,,A,]4 [E,,E,]2 [E,,E,]2 | [C,,A,,]6) z2 |] %32
V:4
 x8 | x8 | x8 | x8 | x8 | x8 | x8 | x8 | x8 | x8 | x8 | x8 | x8 | x8 | A,,8- | A,,2 B,,2 C,2 x2 | %16
 x8 | x8 | x8 | x8 | x8 | x8 | x8 | x8 | x8 | x8 | x8 | C,,8 | x8 | x8 | x8 | x8 |] %32

